svgs/google_contacts.svg

<svg width="24" height="24" viewBox="0 0 24 24" fill="none" xmlns="http://www.w3.org/2000/svg">
<circle cx="12" cy="6" r="4" fill="#FFF1C0"/>
<path d="M7 17C7 14.2386 9.23858 12 12 12H16C18.2091 12 20 13.7909 20 16V18C20 20.2091 18.2091 22 16 22H8C7.44772 22 7 21.5523 7 21V17Z" fill="#FFF1C0"/>
<path d="M7.62704 12.1909C5.53317 12.7875 4 14.7147 4 17V21C4 21.5523 4.44772 22 5 22H5.70802C5.57422 21.6938 5.5 21.3556 5.5 21V17C5.5 15.0941 6.32027 13.3798 7.62704 12.1909Z" fill="#FFF1C0"/>
<path d="M8 22H16C18.2091 22 20 20.2091 20 18V16C20 13.7909 18.2091 12 16 12H12C9.23858 12 7 14.2386 7 17V21C7 21.5523 7.44772 22 8 22Z" fill="#FFF1C0"/>
</svg>

<svg xmlns="http://www.w3.org/2000/svg" width="24" height="24" fill="none" viewBox="0 0 24 24"><circle cx="12" cy="6" r="4" fill="#FFF1C0"/><path fill="#FFF1C0" d="M7 17a5 5 0 0 1 5-5h4a4 4 0 0 1 4 4v2a4 4 0 0 1-4 4H8a1 1 0 0 1-1-1zm.627-4.81A5.002 5.002 0 0 0 4 17v4a1 1 0 0 0 1 1h.708a2.491 2.491 0 0 1-.208-1v-4c0-1.906.82-3.62 2.127-4.81"/><path fill="#FFF1C0" d="M8 22h8a4 4 0 0 0 4-4v-2a4 4 0 0 0-4-4h-4a5 5 0 0 0-5 5v4a1 1 0 0 0 1 1"/></svg>
